X: 830
T: The Road to Lurgan
N:"Collected by J.O'Neill"
B:O'Neill's 830
Z:Transcribed by Dan G. Petersen, dangp@post6.tele.dk
M:6/8
L:1/8
K:G
D2|G3 B2G|c2A B2G|GBd cAG|F3 DEF|
GAG B2G|c2A BAG|ded cAF|G3 G2:|
c|BAG AFD|DED FED|BAG AFD|~F3 ABc|
BAG AFD|DED FED|(B/c/d)B cAF|G3 G2:|


